X: 135
M: 6/8
L: 1/8
K: G
|:\
|:\
d2d dcB | c2d e2e | edc BAG | FGA D3 |\
EFG ABc | Bcd efg | dBG cAF | G3 G,3 :|

